public/icon/Z_ALL/Hetzner_B.svg

<?xml version="1.0" encoding="UTF-8"?>
<svg width="1024px" height="1024px" viewBox="0 0 1024 1024" version="1.1" xmlns="http://www.w3.org/2000/svg" xmlns:xlink="http://www.w3.org/1999/xlink">
    <title>Hetzner_B</title>
    <g id="ICON-新版方图标" stroke="none" stroke-width="1" fill="none" fill-rule="evenodd">
        <g id="多版本" transform="translate(-2055, -2048)">
            <g id="Hetzner" transform="translate(0, 2048)">
                <g id="Hetzner_B" transform="translate(2055, 0)">
                    <rect id="蒙版路径" fill="#C32C35" x="0" y="0" width="1024" height="1024"></rect>
                    <path d="M274.75,261 L353.25,261 C360.104315,260.774082 365.020981,262.607416 368,266.5 C370.979019,270.392584 372.312352,276.725918 372,285.5 L372,460 L652.25,460 L652.25,279.25 C653.181748,273.816871 655.265082,269.566871 658.5,266.5 C661.734918,263.433129 666.068252,261.599796 671.5,261 L749.25,261 C756.230019,261.654982 760.980019,263.488315 763.5,266.5 C766.019981,269.511685 768.103315,275.845018 769.75,285.5 L769.75,742 C768.46293,749.769233 766.379597,755.269233 763.5,758.5 C760.620403,761.730767 755.870403,763.897434 749.25,765 L683,765 C671.28283,764.119407 663.116163,761.95274 658.5,758.5 C653.883837,755.04726 651.800503,749.54726 652.25,742 L652.25,562.5 L372,562.5 L372,742 C371.547487,750.283971 370.214154,755.783971 368,758.5 C365.785846,761.216029 360.86918,763.382695 353.25,765 L274.75,765 C267.566792,764.53082 262.400125,762.364153 259.25,758.5 C256.099875,754.635847 255.016542,749.135847 256,742 L256,285.5 C255.888814,275.809728 256.972147,269.476395 259.25,266.5 C261.527853,263.523605 266.69452,261.690272 274.75,261 Z" id="矩形" fill="#FFFFFF"></path>
                </g>
            </g>
        </g>
    </g>
</svg>

<svg xmlns="http://www.w3.org/2000/svg" width="1024" height="1024"><g fill="none" fill-rule="evenodd"><path fill="#C32C35" d="M0 0h1024v1024H0z"/><path fill="#FFF" d="M274.75 261h78.5c6.854-.226 11.771 1.607 14.75 5.5 2.979 3.893 4.312 10.226 4 19V460h280.25V279.25c.932-5.433 3.015-9.683 6.25-12.75s7.568-4.9 13-5.5h77.75c6.98.655 11.73 2.488 14.25 5.5 2.52 3.012 4.603 9.345 6.25 19V742c-1.287 7.77-3.37 13.27-6.25 16.5-2.88 3.23-7.63 5.397-14.25 6.5H683c-11.717-.88-19.884-3.047-24.5-6.5s-6.7-8.953-6.25-16.5V562.5H372V742c-.453 8.284-1.786 13.784-4 16.5-2.214 2.716-7.13 4.883-14.75 6.5h-78.5c-7.183-.47-12.35-2.636-15.5-6.5-3.15-3.864-4.233-9.364-3.25-16.5V285.5c-.111-9.69.972-16.024 3.25-19 2.278-2.976 7.445-4.81 15.5-5.5"/></g></svg>
